dist/images/svg_sprite/abc.svg

<svg width="80" height="80" viewBox="0 0 80 80" fill="none" xmlns="http://www.w3.org/2000/svg">
<g clip-path="url(#clip0)">
<rect width="80" height="80" fill="white"/>
<path d="M25.3333 50.6667H9.33333C4.18099 50.6726 0.00585937 54.8477 0 60.0001V80.0001H34.6667V60.0001C34.6608 54.8477 30.4857 50.6726 25.3333 50.6667ZM20.1745 53.3334L17.3333 57.6003L14.4922 53.3334H20.1745ZM32 77.3334H26.6667V62.6668H24V77.3334H10.6667V62.6668H8V77.3334H2.66667V60.0001C2.67122 56.3197 5.653 53.338 9.33333 53.3334H11.2865L17.3333 62.3998L23.3802 53.3334H25.3333C29.0137 53.338 31.9954 56.3197 32 60.0001V77.3334Z" fill="#4054B2"/>
<path d="M8 36.0001V40.0001C8 45.155 12.1784 49.3334 17.3333 49.3334C22.4883 49.3334 26.6667 45.155 26.6667 40.0001V26.6667C26.6667 24.4578 24.8757 22.6667 22.6667 22.6667H0V28.0001C0.0045573 32.4167 3.58333 35.9955 8 36.0001ZM24 40.0001C24 43.6817 21.015 46.6668 17.3333 46.6668C13.6517 46.6668 10.6667 43.6817 10.6667 40.0001V36.0001H24V40.0001ZM2.66667 25.3334H22.6667C23.403 25.3334 24 25.9304 24 26.6667V33.3334H8C5.05469 33.3334 2.66667 30.9454 2.66667 28.0001V25.3334Z" fill="#4054B2"/>
<path d="M77.3332 40V4C77.3332 1.79102 75.5422 0 73.3332 0H22.6665C20.4575 0 18.6665 1.79102 18.6665 4V20H21.3332V4C21.3332 3.26367 21.9302 2.66667 22.6665 2.66667H73.3332C74.0695 2.66667 74.6665 3.26367 74.6665 4V40H29.3332V42.6667H77.3332V45.3333H26.6665V48H79.9998V40H77.3332Z" fill="#4054B2"/>
<path d="M52.7331 69.4083C54.4661 67.9747 55.1133 65.6082 54.3516 63.4923C53.5892 61.3764 51.582 59.9656 49.3333 59.9656C47.0846 59.9656 45.0775 61.3764 44.3151 63.4923C43.5534 65.6082 44.2005 67.9747 45.9336 69.4083C42.5658 69.7742 40.0104 72.6127 40 76.0001V80.0001H58.6667V76.0001C58.6562 72.6127 56.1009 69.7742 52.7331 69.4083ZM49.3333 62.6667C50.806 62.6667 52 63.8608 52 65.3334C52 66.8061 50.806 68.0001 49.3333 68.0001C47.8607 68.0001 46.6667 66.8061 46.6667 65.3334C46.6667 63.8608 47.8607 62.6667 49.3333 62.6667ZM56 77.3334H42.6667V76.0001C42.6667 73.7911 44.4577 72.0001 46.6667 72.0001H52C54.209 72.0001 56 73.7911 56 76.0001V77.3334Z" fill="#4054B2"/>
<path d="M74.0666 69.4083C75.7996 67.9747 76.4468 65.6082 75.6851 63.4923C74.9227 61.3764 72.9155 59.9656 70.6668 59.9656C68.4181 59.9656 66.411 61.3764 65.6486 63.4923C64.8869 65.6082 65.534 67.9747 67.2671 69.4083C63.8993 69.7742 61.3439 72.6127 61.3335 76.0001V80.0001H80.0002V76.0001C79.9898 72.6127 77.4344 69.7742 74.0666 69.4083ZM70.6668 62.6667C72.1395 62.6667 73.3335 63.8608 73.3335 65.3334C73.3335 66.8061 72.1395 68.0001 70.6668 68.0001C69.1942 68.0001 68.0002 66.8061 68.0002 65.3334C68.0002 63.8608 69.1942 62.6667 70.6668 62.6667ZM77.3335 77.3334H64.0002V76.0001C64.0002 73.7911 65.7912 72.0001 68.0002 72.0001H73.3335C75.5425 72.0001 77.3335 73.7911 77.3335 76.0001V77.3334Z" fill="#4054B2"/>
<path d="M34.9812 12L30.715 27.6491L33.2879 28.3509L34.8361 22.6667H39.8308L41.3803 28.3509L43.9532 27.6491L39.6857 12H34.9812ZM35.5639 20L37.019 14.6667H37.6479L39.103 20H35.5639Z" fill="#4054B2"/>
<path d="M52.6666 12H46.6666V28H52.6666C54.5644 28.0026 56.2741 26.8542 56.9896 25.097C57.7044 23.3392 57.2825 21.3236 55.9225 20C57.2825 18.6764 57.7044 16.6608 56.9896 14.903C56.2741 13.1458 54.5644 11.9974 52.6666 12ZM52.6666 25.3333H49.3333V21.3333H52.6666C53.7715 21.3333 54.6666 22.2285 54.6666 23.3333C54.6666 24.4381 53.7715 25.3333 52.6666 25.3333ZM52.6666 18.6667H49.3333V14.6667H52.6666C53.7715 14.6667 54.6666 15.5619 54.6666 16.6667C54.6666 17.7715 53.7715 18.6667 52.6666 18.6667Z" fill="#4054B2"/>
<path d="M66.6667 14.6667H69.3333V12H66.6667C62.9863 12.0046 60.0046 14.9863 60 18.6667V21.3333C60.0046 25.0137 62.9863 27.9954 66.6667 28H69.3333V25.3333H66.6667C64.4577 25.3333 62.6667 23.5423 62.6667 21.3333V18.6667C62.6667 16.4577 64.4577 14.6667 66.6667 14.6667Z" fill="#4054B2"/>
<path d="M36 33.3333H38.6667V35.9999H36V33.3333Z" fill="#4054B2"/>
<path d="M42.6666 33.3333H45.3333V35.9999H42.6666V33.3333Z" fill="#4054B2"/>
<path d="M49.3333 33.3333H51.9999V35.9999H49.3333V33.3333Z" fill="#4054B2"/>
<path d="M55.9999 33.3333H58.6666V35.9999H55.9999V33.3333Z" fill="#4054B2"/>
<path d="M62.6666 33.3333H65.3333V35.9999H62.6666V33.3333Z" fill="#4054B2"/>
</g>
<defs>
<clipPath id="clip0">
<rect width="80" height="80" fill="white"/>
</clipPath>
</defs>
</svg>

<svg width="80" height="80" fill="none" xmlns="http://www.w3.org/2000/svg"><g clip-path="url(#clip0)"><path fill="#fff" d="M0 0h80v80H0z"/><path d="M25.333 50.667h-16A9.344 9.344 0 0 0 0 60v20h34.667V60a9.344 9.344 0 0 0-9.334-9.333zm-5.159 2.666l-2.84 4.267-2.842-4.267h5.682zm11.826 24h-5.333V62.667H24v14.666H10.667V62.667H8v14.666H2.667V60a6.675 6.675 0 0 1 6.666-6.667h1.954l6.046 9.067 6.047-9.067h1.953A6.675 6.675 0 0 1 32 60v17.333zM8 36v4a9.333 9.333 0 0 0 9.333 9.333A9.333 9.333 0 0 0 26.667 40V26.667a4 4 0 0 0-4-4H0V28a8.008 8.008 0 0 0 8 8zm16 4a6.667 6.667 0 0 1-13.333 0v-4H24v4zM2.667 25.333h20c.736 0 1.333.597 1.333 1.334v6.666H8A5.334 5.334 0 0 1 2.667 28v-2.667z" fill="#4054B2"/><path d="M77.333 40V4a4 4 0 0 0-4-4H22.667a4 4 0 0 0-4 4v16h2.666V4c0-.736.597-1.333 1.334-1.333h50.666c.737 0 1.334.597 1.334 1.333v36H29.332v2.667h48v2.666H26.667V48H80v-8h-2.667zm-24.6 29.408a5.333 5.333 0 1 0-6.8 0A6.652 6.652 0 0 0 40 76v4h18.667v-4a6.652 6.652 0 0 0-5.934-6.592zm-3.4-6.741a2.667 2.667 0 1 1 0 5.333 2.667 2.667 0 0 1 0-5.333zM56 77.333H42.667V76a4 4 0 0 1 4-4H52a4 4 0 0 1 4 4v1.333zm18.067-7.925a5.333 5.333 0 1 0-6.8 0A6.652 6.652 0 0 0 61.334 76v4H80v-4a6.652 6.652 0 0 0-5.933-6.592zm-3.4-6.741a2.667 2.667 0 1 1 0 5.333 2.667 2.667 0 0 1 0-5.333zm6.666 14.666H64V76a4 4 0 0 1 4-4h5.334a4 4 0 0 1 4 4v1.333z" fill="#4054B2"/><path d="M34.981 12l-4.266 15.65 2.573.7 1.548-5.683h4.995l1.55 5.684 2.572-.702L39.686 12H34.98zm.583 8l1.455-5.333h.629L39.103 20h-3.54zm17.103-8h-6v16h6a4.66 4.66 0 0 0 3.255-8 4.66 4.66 0 0 0-3.256-8zm0 13.333h-3.334v-4h3.334a2 2 0 1 1 0 4zm0-6.666h-3.334v-4h3.334a2 2 0 1 1 0 4zm14-4h2.666V12h-2.666A6.675 6.675 0 0 0 60 18.667v2.666A6.675 6.675 0 0 0 66.667 28h2.666v-2.667h-2.666a4 4 0 0 1-4-4v-2.666a4 4 0 0 1 4-4zM36 33.333h2.667V36H36v-2.667zm6.667 0h2.666V36h-2.666v-2.667zm6.666 0H52V36h-2.667v-2.667zm6.667 0h2.667V36H56v-2.667zm6.667 0h2.666V36h-2.666v-2.667z" fill="#4054B2"/></g><defs><clipPath id="clip0"><path fill="#fff" d="M0 0h80v80H0z"/></clipPath></defs></svg>
